public/logos/6J.svg

<?xml version="1.0" encoding="UTF-8"?>
<svg xmlns="http://www.w3.org/2000/svg" xmlns:xlink="http://www.w3.org/1999/xlink" width="176pt" height="42.02pt" viewBox="0 0 176 42.02" version="1.1">
<defs>
<clipPath id="clip1">
  <path d="M 142 0 L 176 0 L 176 42.019531 L 142 42.019531 Z M 142 0 "/>
</clipPath>
</defs>
<g id="surface1">
<path style=" stroke:none;fill-rule:nonzero;fill:rgb(47.134399%,49.015808%,42.488098%);fill-opacity:1;" d="M 110.898438 38.859375 L 110.566406 35.566406 L 106.511719 35.566406 L 105.027344 38.859375 L 100.410156 38.859375 L 108.78125 21.738281 L 113.347656 21.738281 L 115.664062 38.859375 L 110.898438 38.859375 M 110.035156 29.058594 C 109.992188 28.296875 110.035156 27.289062 110.117188 26.652344 C 109.964844 27.289062 109.683594 28.222656 109.195312 29.378906 L 108.039062 32.175781 L 110.25 32.175781 Z M 116.546875 38.859375 L 118.613281 26.503906 L 122.84375 26.519531 L 120.777344 38.859375 Z M 121.089844 25.386719 C 119.777344 25.386719 118.773438 24.316406 118.882812 23.003906 C 118.996094 21.6875 120.203125 20.621094 121.566406 20.621094 C 122.90625 20.621094 123.859375 21.6875 123.75 23.003906 C 123.636719 24.316406 122.453125 25.386719 121.089844 25.386719 Z M 131.453125 30.214844 C 131.058594 29.96875 130.757812 29.875 130.269531 29.875 C 129.539062 29.875 129.015625 30.261719 128.636719 30.773438 L 127.277344 38.859375 L 123.046875 38.859375 L 125.117188 26.503906 L 128.871094 26.503906 C 128.785156 27.097656 128.726562 27.492188 128.636719 28 C 129.265625 27.320312 130.140625 26.445312 131.476562 26.445312 C 132.085938 26.445312 132.453125 26.566406 132.996094 26.808594 Z M 68.65625 34.996094 C 67.449219 35.8125 66.285156 36.207031 65.214844 36.207031 C 63.464844 36.207031 63.433594 34.667969 63.589844 33.851562 C 63.589844 33.851562 64.902344 33.960938 65.871094 33.921875 C 69.179688 33.792969 70.929688 32.265625 70.929688 29.945312 C 70.929688 27.464844 68.980469 25.992188 66.242188 25.992188 C 62.691406 25.992188 60.101562 28.523438 59.410156 32.65625 C 58.730469 36.71875 60.53125 39.175781 64.546875 39.175781 C 66.417969 39.175781 68.058594 38.664062 69.953125 37.375 Z M 65.898438 28.9375 C 66.636719 28.9375 67.078125 29.394531 67.078125 29.984375 C 67.078125 30.875 66.175781 31.140625 65.320312 31.210938 C 64.574219 31.261719 64.050781 31.179688 64.050781 31.179688 C 64.324219 29.488281 65.011719 28.9375 65.898438 28.9375 Z M 10.808594 28.039062 L 9.121094 27.589844 C 7.886719 27.269531 7.585938 26.699219 7.679688 26.128906 C 7.796875 25.433594 8.507812 24.886719 9.652344 24.886719 C 10.839844 24.886719 12.304688 25.332031 13.34375 26.101562 L 13.433594 25.992188 L 15.335938 22.5 C 13.996094 21.714844 12.152344 21.265625 10.109375 21.265625 C 6.238281 21.265625 3.027344 23.546875 2.457031 26.972656 C 1.957031 29.945312 3.4375 31.3125 5.832031 31.980469 L 7.78125 32.503906 C 8.917969 32.824219 9.40625 33.148438 9.277344 33.917969 C 9.121094 34.859375 8.316406 35.503906 6.582031 35.503906 C 4.820312 35.503906 3.074219 34.835938 1.953125 34.117188 L 0 37.699219 C 1.546875 38.558594 3.421875 39.152344 5.921875 39.152344 C 10.410156 39.152344 13.851562 36.96875 14.546875 32.824219 C 15.128906 29.351562 12.589844 28.511719 10.808594 28.039062 Z M 27.441406 32.269531 C 26.609375 37.230469 23.292969 39.175781 20.300781 39.175781 C 16.703125 39.175781 14.886719 36.792969 15.585938 32.632812 C 16.238281 28.71875 19.082031 25.992188 22.753906 25.992188 C 25.839844 25.992188 28.195312 27.769531 27.441406 32.269531 Z M 20.144531 32.707031 C 19.738281 35.136719 19.703125 36.207031 20.894531 36.207031 C 21.894531 36.207031 22.386719 35.136719 22.890625 32.148438 C 23.308594 29.640625 23.085938 28.9375 22.089844 28.9375 C 21.214844 28.9375 20.664062 29.59375 20.144531 32.707031 Z M 31.355469 39.175781 C 27.78125 39.175781 28.015625 37.328125 28.433594 34.820312 L 30.59375 21.90625 L 34.800781 21.90625 L 32.855469 33.476562 C 32.484375 35.6875 32.503906 36.234375 33.453125 36.234375 C 33.597656 36.234375 33.746094 36.207031 33.902344 36.160156 L 34.144531 38.785156 C 33.546875 39.003906 32.523438 39.175781 31.355469 39.175781 Z M 41.941406 38.128906 C 41.25 38.640625 40.113281 39.175781 38.628906 39.175781 C 35.515625 39.175781 34.632812 37.328125 35.007812 35.089844 C 35.410156 32.707031 37.761719 31.003906 41.261719 31.003906 C 41.433594 31.003906 41.847656 31.003906 41.964844 31.027344 L 42.09375 30.25 C 42.214844 29.519531 42.039062 28.980469 41.117188 28.980469 C 40.070312 28.980469 38.808594 29.386719 37.496094 30.125 L 36.605469 27.363281 C 38.167969 26.574219 39.632812 25.992188 41.925781 25.992188 C 45.066406 25.992188 46.78125 27.695312 46.332031 30.226562 L 45.558594 34.554688 C 45.382812 35.601562 45.335938 36.453125 46.117188 37.011719 L 43.289062 39.371094 C 42.714844 39.175781 42.070312 38.519531 41.941406 38.128906 Z M 39.128906 35.042969 C 39.003906 35.769531 39.363281 36.257812 40.089844 36.257812 C 40.457031 36.257812 40.980469 36.039062 41.15625 35.84375 L 41.523438 33.65625 C 39.757812 33.605469 39.25 34.3125 39.128906 35.042969 Z M 55.90625 31.027344 L 54.40625 30.6875 C 53.417969 30.46875 53.183594 30.128906 53.261719 29.691406 C 53.328125 29.277344 53.816406 28.984375 54.472656 28.984375 C 55.296875 28.984375 56.277344 29.253906 57.40625 29.910156 L 58.90625 27.160156 C 57.855469 26.640625 56.707031 25.992188 54.414062 25.992188 C 51.273438 25.992188 48.972656 27.695312 48.542969 30.273438 C 48.242188 32.050781 48.960938 33.289062 50.910156 33.703125 L 52.480469 34.042969 C 53.675781 34.3125 54.058594 34.507812 53.945312 35.1875 C 53.867188 35.648438 53.226562 36.136719 52.472656 36.136719 C 51.230469 36.136719 49.371094 35.042969 48.628906 34.53125 L 46.882812 37.734375 C 48.523438 38.648438 50.101562 39.175781 51.816406 39.175781 C 55.316406 39.175781 57.945312 37.425781 58.402344 34.699219 C 58.734375 32.730469 58.035156 31.515625 55.90625 31.027344 Z M 90.734375 38.859375 C 90.660156 38.566406 90.652344 38.324219 90.664062 38.105469 C 89.96875 38.785156 89.027344 39.175781 87.761719 39.175781 C 84.554688 39.175781 83.125 36.816406 83.792969 32.828125 C 84.40625 29.15625 86.613281 25.992188 90.335938 25.992188 C 90.945312 25.992188 91.640625 26.210938 91.941406 26.429688 C 91.929688 26.066406 92.023438 25.070312 92.128906 24.4375 L 92.554688 21.90625 L 96.796875 21.90625 L 94.78125 33.875 C 94.246094 37.058594 94.207031 37.886719 94.40625 38.859375 Z M 91.242188 29.738281 C 91.164062 29.472656 90.8125 29.253906 90.421875 29.253906 C 89.328125 29.253906 88.851562 30.054688 88.375 32.902344 C 88.074219 34.699219 88.054688 35.988281 89.269531 35.988281 C 89.707031 35.988281 90.082031 35.796875 90.261719 35.578125 Z M 80.863281 34.996094 C 79.652344 35.8125 78.488281 36.207031 77.417969 36.207031 C 75.664062 36.207031 75.636719 34.667969 75.796875 33.851562 C 75.796875 33.851562 77.105469 33.960938 78.078125 33.921875 C 81.386719 33.792969 83.132812 32.265625 83.132812 29.945312 C 83.132812 27.464844 81.183594 25.992188 78.449219 25.992188 C 74.898438 25.992188 72.308594 28.523438 71.617188 32.65625 C 70.933594 36.71875 72.738281 39.175781 76.75 39.175781 C 78.621094 39.175781 80.265625 38.664062 82.160156 37.375 Z M 78.101562 28.9375 C 78.84375 28.9375 79.28125 29.394531 79.28125 29.984375 C 79.28125 30.875 78.382812 31.140625 77.523438 31.210938 C 76.78125 31.261719 76.257812 31.179688 76.257812 31.179688 C 76.53125 29.488281 77.214844 28.9375 78.101562 28.9375 "/>
<g clip-path="url(#clip1)" clip-rule="nonzero">
<path style=" stroke:none;fill-rule:nonzero;fill:rgb(72.099304%,86.056519%,8.808899%);fill-opacity:1;" d="M 171.640625 6.933594 C 170.8125 10.417969 167.328125 12.976562 163.855469 12.644531 C 160.382812 12.316406 158.234375 9.222656 159.066406 5.742188 C 159.890625 2.257812 163.375 -0.300781 166.847656 0.0273438 C 170.320312 0.359375 172.46875 3.453125 171.640625 6.933594 M 173.867188 18.035156 C 175.546875 19.15625 176.496094 21.417969 175.730469 24.414062 C 174.261719 30.292969 169.632812 35.34375 166.878906 37.402344 C 161.898438 41.222656 155.257812 42.316406 151.707031 41.957031 C 147.773438 41.554688 144.535156 39.671875 142.703125 37.472656 C 145.859375 39.730469 149.585938 38.835938 152.980469 37.546875 C 157.144531 35.964844 159.558594 33.632812 161.667969 30.289062 C 164.296875 26.125 164.472656 21.476562 166.300781 19.355469 C 168.59375 16.6875 171.707031 16.636719 173.867188 18.035156 "/>
</g>
<path style=" stroke:none;fill-rule:nonzero;fill:rgb(37.506104%,72.323608%,19.715881%);fill-opacity:1;" d="M 146.449219 30.554688 C 145.910156 29.015625 144.429688 28.53125 143.214844 28.652344 C 141.132812 28.863281 139.898438 30.933594 140.367188 32.804688 C 140.835938 34.667969 141.699219 36.269531 142.703125 37.472656 C 145.859375 39.730469 149.589844 38.851562 153.0625 37.519531 C 148.914062 36.914062 147.050781 32.269531 146.449219 30.554688 M 140.652344 19.542969 C 139.980469 17.570312 141.058594 15.257812 143.054688 14.375 C 145.050781 13.496094 147.210938 14.382812 147.878906 16.355469 C 148.550781 18.328125 147.472656 20.640625 145.476562 21.523438 C 143.480469 22.402344 141.320312 21.515625 140.652344 19.542969 "/>
</g>
</svg>

<svg xmlns="http://www.w3.org/2000/svg" width="176pt" height="56.027" viewBox="0 0 176 42.02"><defs><clipPath id="a"><path d="M142 0h34v42.02h-34Zm0 0"/></clipPath></defs><path d="m110.898 38.86-.332-3.294h-4.054l-1.485 3.293h-4.617l8.371-17.12h4.567l2.316 17.12zm-.863-9.8c-.043-.762 0-1.77.082-2.407-.152.637-.433 1.57-.922 2.727l-1.156 2.797h2.211Zm6.512 9.8 2.066-12.355 4.23.016-2.066 12.34Zm4.543-13.472c-1.313 0-2.317-1.07-2.207-2.383.113-1.317 1.32-2.383 2.683-2.383 1.34 0 2.293 1.067 2.184 2.383-.113 1.312-1.297 2.383-2.66 2.383m10.363 4.828c-.394-.246-.695-.34-1.183-.34-.73 0-1.254.387-1.633.898l-1.36 8.086h-4.23l2.07-12.355h3.754c-.086.594-.144.988-.234 1.496.629-.68 1.504-1.555 2.84-1.555.609 0 .976.121 1.52.364Zm-62.797 4.781c-1.207.816-2.37 1.211-3.441 1.211-1.75 0-1.781-1.539-1.625-2.355 0 0 1.312.109 2.281.07 3.309-.129 5.059-1.656 5.059-3.977 0-2.48-1.95-3.953-4.688-3.953-3.55 0-6.14 2.531-6.832 6.664-.68 4.063 1.121 6.52 5.137 6.52 1.871 0 3.512-.512 5.406-1.801Zm-2.758-6.059c.739 0 1.18.458 1.18 1.047 0 .891-.902 1.157-1.758 1.227-.746.05-1.27-.031-1.27-.031.274-1.692.962-2.242 1.848-2.242m-55.09-.898-1.687-.45c-1.234-.32-1.535-.89-1.441-1.46.117-.695.828-1.242 1.972-1.242 1.188 0 2.653.445 3.692 1.215l.09-.11 1.902-3.492c-1.34-.785-3.184-1.234-5.227-1.234-3.87 0-7.082 2.28-7.652 5.707-.5 2.972.98 4.34 3.375 5.007l1.95.524c1.136.32 1.624.644 1.495 1.414-.156.941-.96 1.586-2.695 1.586-1.762 0-3.508-.668-4.629-1.387L0 37.7c1.547.86 3.422 1.453 5.922 1.453 4.488 0 7.93-2.183 8.625-6.328.582-3.472-1.957-4.312-3.738-4.785m16.633 4.23c-.832 4.961-4.148 6.907-7.14 6.907-3.598 0-5.414-2.383-4.715-6.543.652-3.914 3.496-6.64 7.168-6.64 3.086 0 5.441 1.777 4.687 6.277m-7.296.438c-.407 2.43-.442 3.5.75 3.5 1 0 1.492-1.07 1.996-4.059.418-2.507.195-3.21-.801-3.21-.875 0-1.426.656-1.945 3.769m11.21 6.469c-3.574 0-3.34-1.848-2.921-4.356l2.16-12.914H34.8l-1.946 11.57c-.37 2.212-.351 2.758.598 2.758q.216-.002.45-.074l.242 2.625c-.598.219-1.622.39-2.79.39m10.586-1.047c-.691.512-1.828 1.047-3.312 1.047-3.113 0-3.996-1.848-3.621-4.086.402-2.383 2.754-4.086 6.254-4.086.172 0 .586 0 .703.023l.129-.777c.12-.73-.055-1.27-.977-1.27-1.047 0-2.308.407-3.62 1.145l-.892-2.762c1.563-.789 3.028-1.37 5.32-1.37 3.141 0 4.856 1.702 4.407 4.234l-.773 4.328c-.176 1.047-.223 1.898.558 2.457l-2.828 2.36c-.574-.196-1.219-.852-1.348-1.243m-2.812-3.086c-.125.727.234 1.215.96 1.215.368 0 .891-.219 1.067-.414l.367-2.188c-1.765-.05-2.273.657-2.394 1.387m16.777-4.016-1.5-.34c-.988-.218-1.222-.558-1.144-.996.066-.414.554-.707 1.21-.707.825 0 1.805.27 2.934.926l1.5-2.75c-1.05-.52-2.199-1.168-4.492-1.168-3.14 0-5.441 1.703-5.871 4.281-.3 1.778.418 3.016 2.367 3.43l1.57.34c1.196.27 1.579.465 1.465 1.145-.078.46-.718.949-1.472.949-1.243 0-3.102-1.094-3.844-1.606l-1.746 3.203c1.64.914 3.219 1.442 4.933 1.442 3.5 0 6.13-1.75 6.586-4.477.332-1.969-.367-3.183-2.496-3.672m34.828 7.832a2.4 2.4 0 0 1-.07-.754c-.695.68-1.637 1.07-2.902 1.07-3.207 0-4.637-2.359-3.969-6.347.613-3.672 2.82-6.836 6.543-6.836.61 0 1.305.219 1.605.438-.011-.364.082-1.36.188-1.992l.426-2.532h4.242L94.78 33.875c-.535 3.184-.574 4.012-.375 4.984Zm.508-9.12c-.078-.266-.43-.485-.82-.485-1.094 0-1.57.8-2.047 3.648-.3 1.797-.32 3.086.895 3.086.437 0 .812-.191.992-.41Zm-10.379 5.257c-1.21.816-2.375 1.211-3.445 1.211-1.754 0-1.781-1.539-1.621-2.355 0 0 1.308.109 2.281.07 3.309-.129 5.055-1.656 5.055-3.977 0-2.48-1.95-3.953-4.684-3.953-3.55 0-6.14 2.531-6.832 6.664-.683 4.063 1.121 6.52 5.133 6.52 1.871 0 3.516-.512 5.41-1.801Zm-2.761-6.059c.742 0 1.18.458 1.18 1.047 0 .891-.9 1.157-1.759 1.227-.742.05-1.265-.031-1.265-.031.273-1.692.957-2.242 1.844-2.242" style="stroke:none;fill-rule:nonzero;fill:#787d6c;fill-opacity:1"/><g clip-path="url(#a)"><path d="M171.64 6.934c-.827 3.484-4.312 6.043-7.785 5.71-3.472-.328-5.62-3.421-4.789-6.902.825-3.484 4.309-6.043 7.782-5.715 3.472.332 5.62 3.426 4.793 6.907m2.226 11.101c1.68 1.121 2.63 3.383 1.863 6.38-1.468 5.878-6.097 10.929-8.851 12.987-4.98 3.82-11.621 4.914-15.172 4.555-3.934-.402-7.172-2.285-9.004-4.484 3.156 2.257 6.883 1.363 10.277.074 4.165-1.582 6.579-3.914 8.688-7.258 2.629-4.164 2.805-8.812 4.633-10.934 2.293-2.668 5.406-2.718 7.566-1.32" style="stroke:none;fill-rule:nonzero;fill:#b8db16;fill-opacity:1"/></g><path d="M146.45 30.555c-.54-1.54-2.02-2.024-3.235-1.903-2.082.211-3.317 2.282-2.848 4.153.469 1.863 1.332 3.465 2.336 4.668 3.156 2.257 6.887 1.379 10.36.047-4.149-.606-6.012-5.25-6.614-6.965m-5.797-11.012c-.672-1.973.407-4.285 2.403-5.168 1.996-.879 4.156.008 4.824 1.98.672 1.973-.406 4.286-2.402 5.168-1.997.88-4.157-.007-4.825-1.98" style="stroke:none;fill-rule:nonzero;fill:#60b832;fill-opacity:1"/></svg>
